X:1
T:Title
%%score { ( 1 3 ) | 2 }
L:1/8
M:4/4
K:Ab
V:1 treble nm="Grand Piano"
V:3 treble 
V:2 bass 
V:1
 z4 z2[Q:1/4=100] [CE]>[CE] | [Ec]2 [Ec]2 [FB]>[FA] [EG]>[DF] | [CE]6 [EA]2 | G2 d2 E2 d2 | %4
[M:3/4] c6 |[M:1/4] [CE]>[CE] |[M:4/4] [Ec]2 [Ec]2 [FB]>[FA] [EG]>[DF] | %7
 [CE]4- [CE]>[Ec] [Ec]>[Ec] | [EB] [Ge]3 [EG]2 [=DF]2 |[M:11/16] E/-E/-E/-E/-E/-E/-E/-E-<E | %10
[M:5/16] E<Bc/ |[M:4/4] d6 z2 |[M:3/4] c2 c4 |[M:1/4] [DG]>[EA] |[M:4/4] B2 B2 B>c e>d | c6 z2 | %16
 [Fd]2 [Fd]2 [DF]>[EG] [FA]>[FB] | [Ec]2 [Ed]2 e>c c>[Fd] | c B3 E2 B2 |[M:3/4] [CA]6 |] %20
V:2
 z4 z2 [A,,A,]>[A,,A,] | [A,,A,]2 [A,,A,]2 [D,A,]>[D,A,] [D,A,]>[D,A,] | [A,,A,]6 [C,A,]2 | %3
 [E,B,E]2 [E,G,E]2 [E,G,]2 [E,B,E]2 |[M:3/4] [A,E]6 |[M:1/4] [A,,A,]>[A,,A,] | %6
[M:4/4] [A,,A,]2 [A,,A,]2 [D,A,]>[D,A,] [D,A,]>[D,A,] | [A,,A,]4- [A,,A,]>[A,,A,] [A,,A,]>[A,,A,] | %8
 [B,,G,] [B,,B,]3 [B,,B,]2 [B,,A,]2 | %9
[M:11/16] [E,G,]/-[E,G,]/-[E,G,]/-[E,G,]/-[E,G,]/-[E,G,]/-[E,G,]/-[E,G,]-<[E,G,] | %10
[M:5/16] [E,G,]<[E,G,E][E,A,E]/ | %11
[M:4/4] [E,B,E]>[E,B,] [E,B,]>[E,B,] [E,B,]>[E,G,] [E,B,E]>[E,G,E] | %12
[M:3/4] [A,,A,]>[A,,A,] [A,,A,]>[A,,A,] [A,,A,]>[A,,A,] |[M:1/4] [B,,E,]>[C,A,] | %14
[M:4/4] [E,G,E]2 [E,G,E]2 [E,G,E]>[E,A,E] [E,CE]>[E,B,E] | %15
 [A,E]>A, A,>A, A,>[K:treble][A,E] [A,E]>[A,_G] | [D,A,]2 [D,A,]2 [D,A,]2 [D,A,]>[D,A,] | %17
 [A,,A,]2 [A,,B,]2 [A,CE]>[A,E] [A,E]>[D,A,] | [E,A,E] [E,G,D]3 [E,G,D]2 [E,G,D]2 | %19
[M:3/4] [A,,A,]6 |] %20
V:3
 x8 | x8 | x8 | x8 |[M:3/4] x6 |[M:1/4] x2 |[M:4/4] x8 | x8 | x8 |[M:11/16] x11/2 |[M:5/16] x5/2 | %11
[M:4/4] z z/ E/ E>E E>E G>d |[M:3/4] E>E E>E E>E |[M:1/4] x2 |[M:4/4] x8 | z z/ E/ E>E E>c c>c | %16
 x8 | x8 | x8 |[M:3/4] x6 |] %20

